icons/drag-24.svg

<svg xmlns="http://www.w3.org/2000/svg" viewBox="0 0 24 24"><path d="M8.95 3.5A1.45 1.45 0 117.5 2.05 1.45 1.45 0 018.95 3.5zm6.55-1.45a1.45 1.45 0 101.45 1.45 1.45 1.45 0 00-1.45-1.45zm-8 8a1.45 1.45 0 101.45 1.45 1.45 1.45 0 00-1.45-1.45zm8 0a1.45 1.45 0 101.45 1.45 1.45 1.45 0 00-1.45-1.45zm-8 8a1.45 1.45 0 101.45 1.45 1.45 1.45 0 00-1.45-1.45zm8 0a1.45 1.45 0 101.45 1.45 1.45 1.45 0 00-1.45-1.45z"/></svg>

<svg xmlns="http://www.w3.org/2000/svg" viewBox="0 0 24 24"><title>drag-24</title><g id="icons"><path d="M8.95,3.5A1.45,1.45,0,1,1,7.5,2.05,1.45,1.45,0,0,1,8.95,3.5ZM15.5,2.05A1.45,1.45,0,1,0,16.95,3.5,1.45,1.45,0,0,0,15.5,2.05Zm-8,8A1.45,1.45,0,1,0,8.95,11.5,1.45,1.45,0,0,0,7.5,10.05Zm8,0a1.45,1.45,0,1,0,1.45,1.45A1.45,1.45,0,0,0,15.5,10.05Zm-8,8A1.45,1.45,0,1,0,8.95,19.5,1.45,1.45,0,0,0,7.5,18.05Zm8,0a1.45,1.45,0,1,0,1.45,1.45A1.45,1.45,0,0,0,15.5,18.05Z"/></g></svg>
